svgs/duotone/barcode-scan.svg

<svg xmlns="http://www.w3.org/2000/svg" viewBox="0 0 640 512"><!--! Font Awesome Pro 6.6.0 by @fontawesome - https://fontawesome.com License - https://fontawesome.com/license (Commercial License) Copyright 2024 Fonticons, Inc. --><path class="fa-secondary" style="fill:var(--fa-secondary-color,inherit);opacity:var(--fa-secondary-opacity,.4);" d="M0 256c0-13.3 10.7-24 24-24l592 0c13.3 0 24 10.7 24 24s-10.7 24-24 24L24 280c-13.3 0-24-10.7-24-24z"/><path class="fa-primary" style="fill:var(--fa-primary-color,inherit);opacity:var(--fa-primary-opacity,1);" d="M64 56c0-13.3 10.7-24 24-24l16 0c13.3 0 24 10.7 24 24l0 136-64 0L64 56zm0 264l64 0 0 136c0 13.3-10.7 24-24 24l-16 0c-13.3 0-24-10.7-24-24l0-136zm96 0l32 0 0 144c0 8.8-7.2 16-16 16s-16-7.2-16-16l0-144zm64 0l64 0 0 136c0 13.3-10.7 24-24 24l-16 0c-13.3 0-24-10.7-24-24l0-136zm64-128l-64 0 0-136c0-13.3 10.7-24 24-24l16 0c13.3 0 24 10.7 24 24l0 136zm32 128l64 0 0 136c0 13.3-10.7 24-24 24l-16 0c-13.3 0-24-10.7-24-24l0-136zm64-128l-64 0 0-136c0-13.3 10.7-24 24-24l16 0c13.3 0 24 10.7 24 24l0 136zm64 128l32 0 0 144c0 8.8-7.2 16-16 16s-16-7.2-16-16l0-144zm32-128l-32 0 0-144c0-8.8 7.2-16 16-16s16 7.2 16 16l0 144zm32 128l64 0 0 136c0 13.3-10.7 24-24 24l-16 0c-13.3 0-24-10.7-24-24l0-136zm64-128l-64 0 0-136c0-13.3 10.7-24 24-24l16 0c13.3 0 24 10.7 24 24l0 136zm-384 0l-32 0 0-144c0-8.8 7.2-16 16-16s16 7.2 16 16l0 144z"/></svg>

<svg xmlns="http://www.w3.org/2000/svg" viewBox="0 0 640 512"><!--! Font Awesome Pro 6.4.2 by @fontawesome - https://fontawesome.com License - https://fontawesome.com/license (Commercial License) Copyright 2023 Fonticons, Inc. --><path class="fa-primary" style="fill:var(--fa-primary-color,inherit);opacity:var(--fa-primary-opacity,1);" d="M64 56c0-13.3 10.7-24 24-24h16c13.3 0 24 10.7 24 24V192H64V56zm0 264h64V456c0 13.3-10.7 24-24 24H88c-13.3 0-24-10.7-24-24V320zm96 0h32V464c0 8.8-7.2 16-16 16s-16-7.2-16-16V320zm64 0h64V456c0 13.3-10.7 24-24 24H248c-13.3 0-24-10.7-24-24V320zm64-128H224V56c0-13.3 10.7-24 24-24h16c13.3 0 24 10.7 24 24V192zm32 128h64V456c0 13.3-10.7 24-24 24H344c-13.3 0-24-10.7-24-24V320zm64-128H320V56c0-13.3 10.7-24 24-24h16c13.3 0 24 10.7 24 24V192zm64 128h32V464c0 8.8-7.2 16-16 16s-16-7.2-16-16V320zm32-128H448V48c0-8.8 7.2-16 16-16s16 7.2 16 16V192zm32 128h64V456c0 13.3-10.7 24-24 24H536c-13.3 0-24-10.7-24-24V320zm64-128H512V56c0-13.3 10.7-24 24-24h16c13.3 0 24 10.7 24 24V192zm-384 0H160V48c0-8.8 7.2-16 16-16s16 7.2 16 16V192z"/><path class="fa-secondary" style="fill:var(--fa-secondary-color,inherit);opacity:var(--fa-secondary-opacity,.4);" d="M0 256c0-13.3 10.7-24 24-24H616c13.3 0 24 10.7 24 24s-10.7 24-24 24H24c-13.3 0-24-10.7-24-24z"/></svg>
